src/lib/packages/icons/src/assets/filled/comment-heart.svg

<svg width="24" height="24" viewBox="0 0 24 24" fill="none" xmlns="http://www.w3.org/2000/svg">
<path d="M12 4C7.03 4 3 6.99998 3 12.001C3 14.121 3.72995 15.892 4.94995 17.212C4.79995 18.172 4.25992 19.272 3.16992 20.152C2.83992 20.432 3.02996 20.9819 3.45996 20.9919C4.87996 21.0419 7.06991 20.852 8.40991 19.422C9.50991 19.802 10.72 20.002 12 20.002C16.97 20.002 21 17.001 21 12.001C21 6.99998 16.97 4 12 4ZM15.925 11.7939C15.403 14.4629 12 16 12 16C12 16 8.59695 14.4629 8.07495 11.7939C7.75495 10.1559 8.45396 8.509 10.231 8.5C11.555 8.494 11.999 9.81799 11.999 9.81799C11.999 9.81799 12.4431 8.493 13.7671 8.5C15.5491 8.509 16.245 10.1559 15.925 11.7939Z" fill="currentColor"/>
</svg>

<svg xmlns="http://www.w3.org/2000/svg" width="24" height="24" fill="none"><path fill="currentColor" d="M12 4c-4.97 0-9 3-9 8.001 0 2.12.73 3.891 1.95 5.211-.15.96-.69 2.06-1.78 2.94-.33.28-.14.83.29.84 1.42.05 3.61-.14 4.95-1.57 1.1.38 2.31.58 3.59.58 4.97 0 9-3.001 9-8.001C21 7 16.97 4 12 4Zm3.925 7.794C15.403 14.463 12 16 12 16s-3.403-1.537-3.925-4.206c-.32-1.638.379-3.285 2.156-3.294 1.324-.006 1.768 1.318 1.768 1.318s.444-1.325 1.768-1.318c1.782.009 2.478 1.656 2.158 3.294Z"/></svg>
